svg/white/zec.svg

<svg xmlns="http://www.w3.org/2000/svg" width="32" height="32" viewBox="0 0 32 32">
  <path fill="#FFF" fill-rule="evenodd" d="M16,32 C7.163444,32 0,24.836556 0,16 C0,7.163444 7.163444,0 16,0 C24.836556,0 32,7.163444 32,16 C32,24.836556 24.836556,32 16,32 Z M15.095746,19.8461538 C15.6447573,19.2307692 16.1291791,18.6837607 16.613601,18.0683761 C17.8730977,16.5299145 19.1002996,15.025641 20.3275015,13.4871795 C20.7150389,13.008547 21.2963451,12.5299145 21.3932295,11.982906 C21.5869982,10.957265 21.4578191,9.86324786 21.4578191,8.73504274 C20.101438,8.73504274 18.8419413,8.73504274 17.5501498,8.73504274 C17.5501498,7.77777778 17.5501498,6.88888889 17.5501498,6 C16.4844218,6 15.4832834,6 14.4175554,6 C14.4175554,6.95726496 14.4175554,7.84615385 14.4175554,8.8034188 C13.1903535,8.8034188 11.9954464,8.8034188 10.832834,8.8034188 C10.832834,9.93162393 10.832834,11.025641 10.832834,12.1538462 C12.8351108,12.1538462 14.8050929,12.1538462 16.8719593,12.1538462 C16.3229479,12.8034188 15.8385261,13.3504274 15.3541043,13.9316239 C14.0946075,15.4700855 12.8674056,16.974359 11.6402037,18.5128205 C11.2849611,18.991453 10.7036549,19.4700855 10.6067705,20.017094 C10.4130018,21.042735 10.5421809,22.1367521 10.5421809,23.2307692 C11.8662672,23.2307692 13.0934691,23.2307692 14.4175554,23.2307692 C14.4175554,24.1880342 14.4175554,25.1111111 14.4175554,26 C15.547873,26 16.5813062,26 17.6793289,26 C17.6147394,25.042735 17.5824446,24.1538462 17.517855,23.1965812 C18.8742361,23.1965812 20.1337328,23.1965812 21.3932295,23.1965812 C21.3932295,22.0683761 21.3932295,20.974359 21.3932295,19.8461538 C19.2940683,19.8461538 17.2594967,19.8461538 15.095746,19.8461538 Z"/>
</svg>

<svg xmlns="http://www.w3.org/2000/svg" width="32" height="32"><path fill="#FFF" fill-rule="evenodd" d="M16 32C7.163 32 0 24.837 0 16S7.163 0 16 0s16 7.163 16 16-7.163 16-16 16zm-.904-12.154a37.083 37.083 0 0 0 1.518-1.778 462.138 462.138 0 0 0 3.714-4.58c.387-.48.968-.958 1.065-1.505.194-1.026.065-2.12.065-3.248H17.55V6h-3.132v2.803h-3.585v3.35h6.039c-.55.65-1.033 1.197-1.518 1.779a462.137 462.137 0 0 0-3.714 4.58c-.355.48-.936.958-1.033 1.505-.194 1.026-.065 2.12-.065 3.214h3.876V26h3.261c-.064-.957-.097-1.846-.161-2.803h3.875v-3.35h-6.297z"/></svg>
